X:1
T:Title
%%score { 1 | ( 2 3 ) }
L:1/8
Q:1/4=95
M:6/8
K:Bb
V:1 treble nm="Grand Piano"
V:2 bass 
V:3 bass 
V:1
 [B,D]2 [DF] [DG]2 [DF] | [EB]2 [EA] [EA]3 | F2 F G2 F | [Ec]2 [DB] [DB]3 | [DF]2 [EG] [DF]2 [Fd] | %5
w: J.~H.~Tenney * * *|||||
 c2 G c3 | [=Ec]2 [GB] A2 G | FGA [DB]3 | [DF]2 [Fd] c2 F | G2 F [DB]3 | [DF]2 [Fd] [Fc]2 [FA] | %11
w: ||||||
 [GB][FA][=EG] [CF]3 | [B,D]2 [DF] [DG]2 [DF] | [EB]2 [EA] [EA]3 | [FB]2 [Fd] dcB | B2 A [DB]3 |] %16
w: |||||
V:2
 [B,,F,]2 [B,,B,] [B,,B,]2 [B,,B,] | [C,F,]2 [C,F,] [C,F,]3 | [F,A,E]2 [F,A,E] [F,A,E]2 [F,A,E] | %3
 [B,,B,]2 [B,,B,] [B,,B,]3 | [B,,B,]2 [B,,B,] [B,,B,]2 [B,,B,] | [E,G,E]2 [E,CE] [E,G,E]3 | %6
 [C,G,]2 [C,C] [F,CF]2 [F,B,=E] | [F,E]-[F,B,E][F,CE] [B,,B,]3 | %8
 [B,,B,]2 [B,,B,] [F,A,E]2 [F,A,E] | [F,A,E]2 [F,A,E] [B,,B,]3 | [B,,B,]2 [B,,B,] [F,A,]2 [F,C] | %11
 [C,C]2 [C,B,] [F,A,]3 | [B,,F,]2 [B,,B,] [B,,B,]2 [B,,B,] | [C,F,]2 [C,F,] [C,F,]3 | %14
 [D,_A,]2 [D,A,] [E,G,E]2 [=E,G,C] | [F,D]2 [F,CE] [B,,B,]3 |] %16
V:3
 x6 | x6 | x6 | x6 | x6 | x6 | x6 | .A,3 z3 | x6 | x6 | x6 | x6 | x6 | x6 | x6 | x6 |] %16

